icon-themes/sifr_svg/cmd/lc_strikeout.svg

<svg viewBox="0 0 24 24" xmlns="http://www.w3.org/2000/svg"><path d="m12 2a6 6 0 0 0 -6 6 6 6 0 0 0 .3515625 2h3.4179687a3 3 0 0 1 -.7695312-2 3 3 0 0 1 3-3h6v-3zm-10 9v2h20v-2zm12.230469 3a3 3 0 0 1 .769531 2 3 3 0 0 1 -3 3h-6v3h6a6 6 0 0 0 6-6 6 6 0 0 0 -.351562-2z" fill="#555753"/></svg>

<svg xmlns="http://www.w3.org/2000/svg" viewBox="0 0 24 24">
  <path
     style="fill:#555753"
     d="M 12 2 A 6 6 0 0 0 6 8 A 6 6 0 0 0 6.3515625 10 L 9.7695312 10 A 3 3 0 0 1 9 8 A 3 3 0 0 1 12 5 L 18 5 L 18 2 L 12 2 z M 2 11 L 2 13 L 22 13 L 22 11 L 2 11 z M 14.230469 14 A 3 3 0 0 1 15 16 A 3 3 0 0 1 12 19 L 6 19 L 6 22 L 12 22 A 6 6 0 0 0 18 16 A 6 6 0 0 0 17.648438 14 L 14.230469 14 z "
     />
</svg>
